X: 36801
T: Shetland Fiddlers' Society, The
R: strathspey
M: 4/4
K: Dmajor
(3[A,A]>[B,B][Cc]|[D2d2] [D2d2] F>AD>A|(3d>cB (3A>Bc d>AF<D|E2 E>F G>Be>d|(3cde (3B>cd c<AAF|
D2 D>A F>AD>A|(3d>cB (3A>Bc d>AF<D|G>BE>G F>ADF|(3E>FG (3A>Bc dD D||
g|(3fed (3e>dc d2 A2|d>f (3efg fddf|(3gfe (3fed eBGB|(3cde (3B>cd c<AA>g|
(3fed (3e>dc d>AF>A|d>f (3efg fdAF|(3GAB (3E>FG (3FGA (3D>EF|(3E>FG (3A>Bc dD||

